X:79
T: SCHLAF SUESSER KNABE HOLD UND MILD
N: F0186
O: Europa, Mitteleuropa, Deutschland
R: Wiegen - Lied, Scherz
M: 6/8
L: 1/16
K: F
AG | F4F2F4AG | F4F2F4
BA | G4G2G4cB | A4A2A4
cd | c2B2A2A2B2c2 | d4d2d4
d2 | c2B2A2G2F2E2 | F4F2F4

